X: 2
T: Ceo Na GCnoc
Z: Thady Quill
S: https://thesession.org/tunes/7260#setting30920
R: reel
M: 4/4
L: 1/8
K: Ador
g|: eA A2 eA A2 | dG GA Bd d2| eA A2 efge | dBGA BAAg |
eA A2 efge | dB GA Bdd2 | eA A2 efge | dBGA BA A2 :|
|:ea a2 gabg | eaaf  gfed | ea a2 gabg | dBgd BA A2 |
ea ab gabg | eaaf g3f| BddB cBAG| EGdG ED D2 :|
